!!!COM: Johanna Kinkel
!!!CNT: Deutsch
!!!TXO: Deutsch
!!!OTL: Gondellied
!!!LYR: Geibel
!!!OPR: 6 Gedichte von E. Geibel
!!!OPS: Op. 8
!!!ONM: No. 3
!!!ENC: Ben Fuhrman
!!!YOR: Johanna Kinkel: Lieder, volume 1 Poetry by Geibel and Goethe
!!!YOR: Bryn Mawr, Fildegard Publishing CO, 2000
!!!ODT: 1838
!!NB: Only vocal melody encoded.
!!NB: First instance of melodic material only encoded.
!!created: 2/23/10 1:23PM
!!proofed and posted: 2/23/10 1:25PM
**kern	**silbe
*clef G2	*
*k[f#]	*
*M6/8	*
*MM[Andante con moto]	*
{8d	{O
=1	=1
4b	komm
8a	zu
4g	mir
8b	wenn
=2	=2
4dd	durch
8cc	die
4.b	Nacht
=3	=3
8dd	wan-
8g	-delt
8a	das
(8.b	Ster
16a)	|
8g	-nen-
=4	=4
4.a}	-heer,}
4r	.
{8a	{dann
=5	=5
4b	schwebt
8a	mit
4g#	uns
8b	in
=6	=6
4ee	Mon-
8dd	-des-
8cc	-pracht
8b	|
8a	die
=7	=7
4g	Gon-
8e	-del
(8d	u2-
8b)	|
8a	-ber
=8	=8
4.g}	Meer.}
4r	.
{8b	{Die
=9	=9
(8.b	Lieb'
16cc#)	|
16b	er-
16cc#	|
4b	-wacht,
8cc#	der
=10	=10
8.dd	Scherz
16ee	|
16dd	be-
16ee	|
4dd	-ginnt
8dd	im
=11	=11
(8.cc#	gold'
16dd)	|
16cc#	-nen
16dd	|
4ee	Zau-
16dd	-ber-
16cc#	|
=12	=12
ddq	|
ccq	|
4.b}	-licht.}
4r	.
{8b	{die
=13	=13
8.b	Zi-
16cc#	|
16b	-ther
16cc#	|
4b	lockt
8cc#	so
=14	=14
8.dd	sanft,
16ee	|
16dd	so
16ee	|
4dd	lind,
16dd	du
16ee	|
=15	=15
4ff#	wi-
8dd	-der-
4ff#	-stehst
8ee	ihr
=16	=16
(4.ee-	nicht.
8dd	|
8cc#)}	|}
{8ccn	{O
=17	=17
4b	komm
8a	zu
4g	mir
8b	wenn
=18	=18
4dd	durch
8cc	die
4.b	Nacht
=19	=19
8dd	wan-
8g	-delt
8a	das
8.b	Ster-
16a	|
8g	-nen-
=20	=20
4.a}	-heer,}
4r	.
{8a	{dann
=21	=21
4b	schwebt
8a	mit
4g#	uns
8b	in
=22	=22
4ee	Mon-
8dd	-des-
8cc	-pracht
8b	|
8a	die
=23	=23
4g	Gon-
8e	-del
(8d	u2-
8b)	|
8a	-bers
=24	=24
4.g}	Meer.}
4r	.
8r	.
==	==
*-	*-
